!!!OTL: Pop Goes the Weasel
!!!COM: unknown
!!!ODT: unknown
!!!YOR: The Folksong Fake Book
!!!YOY: 2000
!!!AST: Children's song
!!!YEC: Brian Luke, 2001
**kern	**harm
*k[f#c#]	*k[f#c#]
*M6/8	*M6/8
*D:	*D:
*>A	*>A
=1	=1
4d	I
8d	.
4e	V7
8e	.
=2	=2
8f#	I
8a	.
8f#	.
4d	.
8A	.
=3	=3
4d	.
8d	.
4e	V7
8e	.
=4	=4
4.f#	I
4d	.
*>A'	*>A'
8A	.
=5	=5
4d	I
8d	.
4e	V7
8e	.
=6	=6
8f#	I
8a	.
8f#	.
4.d	.
=7	=7
4b	IV
8r	.
4e	V7
8g	.
=8	=8
4.f#	I;
4d	.
*>B	*>B
8a	.
=9	=9
4dd	vi
8dd	.
4b	.
8b	.
=10	=10
8cc#	V
8ee	.
8cc#	.
4a	.
8a	.
=11	=11
4dd	vi
8dd	.
8b	.
8cc#	.
8dd	.
=12	=12
4.cc#	V
4.a	.
*>C	*>C
=13	=13
4g	IV
8f#	.
4g	.
8a	.
=14	=14
4b	.
8cc#	.
4.dd	.
=15	=15
4b	.
8r	.
4e	V7
8g	.
=16	=16
4.f#	I;
4.d	.
*-	*-
